X:1
T: Irene's Reel
C: I. Flett
R:Reel
Q: 232
K:A
M:4/4
L:1/8
|:a2 ed ce cA|D2 BA GF ED|CE AE DF BF|GA Bc dB GE|
a2 ed ce cA|D2 BA GF ED|CE AE DF BF|Gd cB A4|
Bc dB cd eA|GA BG Ac ec|fe df ed cA|Ba gf ed cB|
Bc dB cd eA|GA BG Ac ec|fe df ed cA|Bd cB A4:|
